X: 15188
T: Gillian's
R: waltz
M: 3/4
K: Dmajor
cB|{BA}F2 (FE) .FA|{=F}^F2 (FE) FA|{A}B2 (BA) .Bc|{c}A2 (Ac) .ea|{e}f3 f ({f}ec)|
(eA) (AB) .cA|1 B2 (BA) (B>A)|{A}c4:|2 B2 (BA) ((3cBA)|A4 ((3d/4c/4B/4) (A/c/).e/a/||
|:{e}f3 f (ec)|(3(ce).A (Ac) (BA)|(EB) (Be E)B|cA Bcea|
{e}f3 f (ec)|(3(ce).A (Ac) (BA)|(EB) .BA ((3cBA)|1 A2 a3 ^g:|2 A6||

